assets/svg/1F367.svg

<?xml version="1.0" encoding="UTF-8" standalone="no"?>
<!-- Generator: Adobe Illustrator 16.0.0, SVG Export Plug-In . SVG Version: 6.00 Build 0)  -->

<svg
   xmlns:dc="http://purl.org/dc/elements/1.1/"
   xmlns:cc="http://creativecommons.org/ns#"
   xmlns:rdf="http://www.w3.org/1999/02/22-rdf-syntax-ns#"
   xmlns:svg="http://www.w3.org/2000/svg"
   xmlns="http://www.w3.org/2000/svg"
   xmlns:sodipodi="http://sodipodi.sourceforge.net/DTD/sodipodi-0.dtd"
   xmlns:inkscape="http://www.inkscape.org/namespaces/inkscape"
   version="1.1"
   id="Layer_1"
   x="0px"
   y="0px"
   width="64px"
   height="64px"
   viewBox="0 0 64 64"
   enable-background="new 0 0 64 64"
   xml:space="preserve"
   inkscape:version="0.48.5 r10040"
   sodipodi:docname="1F367.svg"
   inkscape:export-filename="D:\TESTINGEMOJI\SVGTEST\1F367.png"
   inkscape:export-xdpi="90"
   inkscape:export-ydpi="90"><metadata
   id="metadata5421"><rdf:RDF><cc:Work
       rdf:about=""><dc:format>image/svg+xml</dc:format><dc:type
         rdf:resource="http://purl.org/dc/dcmitype/StillImage" /><dc:title></dc:title></cc:Work></rdf:RDF></metadata><defs
   id="defs5419" /><sodipodi:namedview
   pagecolor="#ffffff"
   bordercolor="#666666"
   borderopacity="1"
   objecttolerance="10"
   gridtolerance="10"
   guidetolerance="10"
   inkscape:pageopacity="0"
   inkscape:pageshadow="2"
   inkscape:window-width="640"
   inkscape:window-height="480"
   id="namedview5417"
   showgrid="false"
   inkscape:zoom="3.6875"
   inkscape:cx="32"
   inkscape:cy="32"
   inkscape:window-x="310"
   inkscape:window-y="303"
   inkscape:window-maximized="0"
   inkscape:current-layer="Layer_1" />
<g
   id="g5395"
   transform="translate(4,0)">
	<ellipse
   cx="29.111"
   cy="56.140999"
   rx="28.254999"
   ry="7.6090002"
   id="ellipse5397"
   sodipodi:cx="29.111"
   sodipodi:cy="56.140999"
   sodipodi:rx="28.254999"
   sodipodi:ry="7.6090002"
   style="fill:#04a69c"
   d="m 57.365999,56.140999 c 0,4.202335 -12.650194,7.609 -28.254999,7.609 -15.604805,0 -28.2549991,-3.406665 -28.2549991,-7.609 0,-4.202335 12.6501941,-7.609 28.2549991,-7.609 15.604805,0 28.254999,3.406665 28.254999,7.609 z" />
	<path
   d="m 51.716,56.141 c 0,3.362 -10.12,6.088 -22.605,6.088 -12.481,0 -22.601,-2.726 -22.601,-6.088 0,-3.359 10.12,-6.084 22.601,-6.084 12.485,0 22.605,2.724 22.605,6.084 z"
   id="path5399"
   inkscape:connector-curvature="0"
   style="fill:#0b7d70" />
	<path
   d="m 58.183,28.852 c 0,-8.224 -13.007,-8.762 -29.072,-8.762 -16.063,0 -29.074,0.538 -29.074,8.762 0,8.212 13.011,28.48 29.074,28.48 16.065,0 29.072,-20.269 29.072,-28.48 z"
   id="path5401"
   inkscape:connector-curvature="0"
   style="fill:#04a69c" />
	<path
   d="M 24.352,44.54 C 20.041,37.677 17.798,26.995 21.668,20.165 9.227,20.464 0.047,21.949 0.047,28.852 c 0,8.212 13.013,28.48 29.074,28.48 3.168,0 6.209,-0.797 9.061,-2.122 -5.531,-2.343 -10.611,-5.55 -13.83,-10.67 z"
   id="path5403"
   inkscape:connector-curvature="0"
   style="fill:#089083" />
	<ellipse
   cx="29.112"
   cy="27.608"
   rx="28.9"
   ry="9.1160002"
   id="ellipse5405"
   sodipodi:cx="29.112"
   sodipodi:cy="27.608"
   sodipodi:rx="28.9"
   sodipodi:ry="9.1160002"
   style="fill:#bcbdbf"
   d="m 58.011999,27.608 c 0,5.034628 -12.93897,9.116 -28.899999,9.116 -15.96103,0 -28.90000011,-4.081372 -28.90000011,-9.116 0,-5.034628 12.93897011,-9.116 28.90000011,-9.116 15.961029,0 28.899999,4.081372 28.899999,9.116 z" />
	<ellipse
   cx="29.113001"
   cy="28.405001"
   rx="28.177"
   ry="8.3190002"
   id="ellipse5407"
   sodipodi:cx="29.113001"
   sodipodi:cy="28.405001"
   sodipodi:rx="28.177"
   sodipodi:ry="8.3190002"
   style="fill:#04a69c"
   d="m 57.290001,28.405001 c 0,4.594457 -12.615273,8.319 -28.177,8.319 -15.561728,0 -28.17700018,-3.724543 -28.17700018,-8.319 0,-4.594457 12.61527218,-8.319001 28.17700018,-8.319001 15.561727,0 28.177,3.724544 28.177,8.319001 z" />
	<path
   d="M 58.23,27.875 C 58.419,36.548 43.38,38.381 28.431,38.712 13.477,39.047 0.208,34.975 0.011,26.305 -0.171,17.627 19.701,4.451 34.641,4.12 49.584,3.794 58.039,19.209 58.23,27.875 z"
   id="path5409"
   inkscape:connector-curvature="0"
   style="fill:#f5e8d9" />
	<path
   d="M 50.587,34.087 C 42.261,36.303 31.063,36.108 23.023,32.784 15.614,29.724 8.289,22.875 12.891,14.022 13.817,12.237 14.977,10.727 16.287,9.396 7.191,14.098 -0.11,21.03 0.001,26.306 c 0.195,8.67 13.467,12.742 28.418,12.407 12.73,-0.279 25.498,-1.67 28.895,-7.431 -1.948,1.172 -4.156,2.119 -6.727,2.805 z"
   id="path5411"
   inkscape:connector-curvature="0"
   style="fill:#e9ddd6" />
	<path
   d="M 54.166,17.189 C 54.304,23.48 41.122,34.981 30.483,29.084 19.442,22.964 6.943,22.45 6.802,16.165 6.669,9.87 22.865,0.274 35.021,0.005 47.178,-0.26 54.027,10.904 54.166,17.189 z"
   id="path5413"
   inkscape:connector-curvature="0"
   style="fill:#eb77ab" />
	<path
   d="M 22.826,15.267 C 20.908,9.296 22.109,5.017 25.057,1.901 15.535,5.061 6.705,11.511 6.803,16.165 c 0.142,6.285 12.641,6.799 23.681,12.919 3.58,1.984 7.438,1.97 10.991,0.879 -6.923,-2.941 -16.376,-7.63 -18.649,-14.696 z"
   id="path5415"
   inkscape:connector-curvature="0"
   style="fill:#db7db2" />
</g>
</svg>

<svg xmlns="http://www.w3.org/2000/svg" viewBox="0 0 64 64" enable-background="new 0 0 64 64"><g transform="translate(4)"><ellipse cx="29.11" cy="56.14" rx="28.25" ry="7.609" fill="#04a69c"/><path d="m51.716 56.14c0 3.362-10.12 6.088-22.605 6.088-12.481 0-22.601-2.726-22.601-6.088 0-3.359 10.12-6.084 22.601-6.084 12.485 0 22.605 2.724 22.605 6.084" fill="#0b7d70"/><path d="m58.18 28.852c0-8.224-13.01-8.762-29.07-8.762-16.06 0-29.07.538-29.07 8.762 0 8.212 13.01 28.48 29.07 28.48 16.07 0 29.07-20.269 29.07-28.48" fill="#04a69c"/><path d="m24.352 44.54c-4.311-6.863-6.554-17.545-2.684-24.375-12.441.299-21.621 1.784-21.621 8.687 0 8.212 13.01 28.48 29.07 28.48 3.168 0 6.209-.797 9.06-2.122-5.531-2.343-10.611-5.55-13.83-10.67" fill="#089083"/><ellipse cx="29.11" cy="27.608" rx="28.9" ry="9.116" fill="#bcbdbf"/><ellipse cx="29.11" cy="28.405" rx="28.18" ry="8.319" fill="#04a69c"/><path d="m58.23 27.875c.189 8.673-14.85 10.506-29.799 10.837-14.954.335-28.22-3.737-28.42-12.407-.182-8.678 19.69-21.854 34.63-22.18 14.943-.326 23.398 15.09 23.589 23.755" fill="#f5e8d9"/><path d="m50.587 34.09c-8.326 2.216-19.524 2.02-27.564-1.303-7.409-3.06-14.734-9.909-10.132-18.762.926-1.785 2.086-3.295 3.396-4.626-9.1 4.702-16.397 11.634-16.286 16.91.195 8.67 13.467 12.742 28.418 12.407 12.73-.279 25.498-1.67 28.895-7.431-1.948 1.172-4.156 2.119-6.727 2.805" fill="#e9ddd6"/><path d="m54.17 17.189c.138 6.291-13.04 17.792-23.683 11.895-11.04-6.12-23.54-6.634-23.681-12.919-.133-6.295 16.06-15.891 28.22-16.16 12.157-.265 19.01 10.899 19.14 17.18" fill="#eb77ab"/><path d="m22.826 15.267c-1.918-5.971-.717-10.25 2.231-13.366-9.522 3.16-18.352 9.61-18.254 14.264.142 6.285 12.641 6.799 23.681 12.919 3.58 1.984 7.438 1.97 10.991.879-6.923-2.941-16.376-7.63-18.649-14.696" fill="#db7db2"/></g></svg>
